server/caravan/static/img/steps/3.svg

<svg id="eJ2HNbLct5K1" xmlns="http://www.w3.org/2000/svg" xmlns:xlink="http://www.w3.org/1999/xlink" viewBox="0 60 87 44" shape-rendering="geometricPrecision" text-rendering="geometricPrecision"><defs><linearGradient id="eJ2HNbLct5K7-stroke" x1="1" y1="79" x2="23.8246" y2="77.7644" spreadMethod="pad" gradientUnits="userSpaceOnUse" gradientTransform="translate(0 0)"><stop id="eJ2HNbLct5K7-stroke-0" offset="0%" stop-color="#e41b1b"/><stop id="eJ2HNbLct5K7-stroke-1" offset="100%" stop-color="#bd0000"/></linearGradient></defs><path d="M68.5258,67.8233c2.3906,0,4.3355,1.9683,4.3355,4.3876s-1.9449,4.3876-4.3355,4.3876-4.3355-1.9683-4.3355-4.3876s1.9449-4.3876,4.3355-4.3876Zm3.2953,4.3875c0,1.8389-1.4782,3.335-3.2953,3.335s-3.2953-1.496-3.2953-3.335c0-1.8388,1.4782-3.3348,3.2953-3.3348s3.2953,1.496,3.2953,3.3348Z" transform="translate(.650813 22.729632)" clip-rule="evenodd" fill="#939faa" fill-rule="evenodd"/><path d="M38.6157,63.2188c0-.2906.2329-.5263.5201-.5263h3.0758c.2872,0,.5201.2357.5201.5263s-.2329.5264-.5201.5264h-3.0758c-.2872,0-.5201-.2357-.5201-.5264ZM24.2498,62.0775c0-.2906.2328-.5263.5201-.5263h3.0757c.2872,0,.5201.2357.5201.5263c0,.2908-.2329.5264-.5201.5264h-3.0757c-.2873,0-.5201-.2356-.5201-.5264Zm34.114,9.6429c.2873.0036.5172.2421.5137.5328-.0035.2884-.2357.5198-.52.5198h-.0065l-33.683-.4221c-.2872-.0036-.5172-.2421-.5136-.5328s.2397-.522.5265-.5198l33.6829.4221Z" transform="translate(.650813 22.729632)" clip-rule="evenodd" fill="#939faa" fill-rule="evenodd"/><path d="M82.6227,76.0978h-7.4313C73.8596,78.4278,71.3715,80,68.5258,80s-5.3338-1.5722-6.6656-3.9022h-40.4934l.5014-1.0527h39.4907c-.3406-.879-.5298-1.8344-.5298-2.8342c0-4.2949,3.4527-7.7891,7.6967-7.7891s7.6967,3.4942,7.6967,7.7891c0,.9998-.1891,1.9552-.5297,2.8342h6.9299c.2786,0,.5052-.2293.5052-.5112v-4.8228h-1.78c-.8771,0-1.6846-.4453-2.1601-1.1912l-4.4785-7.0261c-4.2391-1.2082-10.556-2.0593-12.7211-2.3294-.4907-.0613-.9606-.251-1.359-.5489-2.112-1.5791-12.9852-9.5159-19.6524-10.7008-5.4323-.9654-11.2466-.9953-16.2069-.6965l1.2316-1.1186c4.7304-.2214,10.1022-.1197,15.1552.7783c6.7236,1.1949,17.0774,8.6381,20.0905,10.8909.2583.1931.5504.3112.8682.3508c2.7107.3382,11.8458,1.5773,15.5891,3.3243c4.168,1.9454,6.4635,4.6944,6.4635,7.7408v5.3492c0,.8623-.6931,1.5639-1.5453,1.5639Zm-7.4404-3.8869c0,3.7145-2.9861,6.7364-6.6565,6.7364s-6.6565-3.0219-6.6565-6.7364s2.9861-6.7365,6.6565-6.7365s6.6565,3.022,6.6565,6.7365ZM76.2634,61.99c.3677.1333.7056.27,1.0055.4099c2.0769.9693,5.4874,3.0371,5.8288,6.2585h-1.7498c-.5222,0-1.0029-.2651-1.286-.7092L76.2634,61.99Z" transform="translate(.650813 22.729632)" clip-rule="evenodd" fill="#939faa" fill-rule="evenodd"/><path d="M58.1667,60.8226c-.0083,0-.0166-.0001-.0249-.0006L26.0015,59.2717v-1.0539l10.4183.5025-1.2859-8.3599c-.9862-.067-2.0678-.0972-3.4331-.0972-2.121,0-4.1438.0719-6.037.1871l.3377-1.0747c1.7962-.1024,3.7047-.1651,5.6993-.1651c1.4933,0,2.6543.0352,3.7181.114.0256-.0083.0514-.0164.0789-.0208.1123-.0177.2213.0036.3154.0522c1.4982.1292,2.8553.3509,4.7652.6916c4.9306.8794,13.5987,6.4966,17.9042,9.8307.1807.14.2505.3825.1724.5987-.0752.2084-.2708.3457-.4883.3457ZM36.2005,50.4503c1.2887.1309,2.5275.3361,4.1974.634c4.2807.7634,11.591,5.3159,16.087,8.6039l-19.0045-.9167-1.2799-8.3212Z" transform="translate(.650813 22.729632)" clip-rule="evenodd" fill="#939faa" fill-rule="evenodd"/><path d="M72.8613,72.2109c0-2.4193-1.9449-4.3876-4.3355-4.3876s-4.3355,1.9683-4.3355,4.3876s1.9449,4.3876,4.3355,4.3876s4.3355-1.9683,4.3355-4.3876Zm-1.0402-.0001c0,1.8389-1.4782,3.335-3.2953,3.335s-3.2953-1.496-3.2953-3.335c0-1.8388,1.4782-3.3348,3.2953-3.3348s3.2953,1.496,3.2953,3.3348Z" transform="translate(.650813 22.729632)" clip-rule="evenodd" fill="#939faa" fill-rule="evenodd"/><path d="M16.926,57.1703c-1.5696-.8674-3.2384-1.5283-4.8907-2.214-.9583-.3966-1.8753-.8592-2.68492-1.5036-1.59443-1.2722-1.28876-3.3375.5783-4.1554.52872-.2313,1.08222-.3057,1.64402-.3387c2.1644-.1157,4.2215.2809,6.1794,1.2226.9749.4709,1.2971.3222,1.6275-.6939.347-1.074.6362-2.1645.9583-3.2467.2148-.727-.0495-1.2062-.7352-1.5118-1.2557-.5535-2.5445-.9501-3.8994-1.1649-1.7679-.2726-1.7679-.2809-1.7761-2.057-.0083-2.5032-.0083-2.5032-2.5197-2.5032-.3635,0-.727-.0083-1.0905,0-1.17315.033-1.37142.2396-1.40447,1.4209-.01652.5287,0,1.0575-.00826,1.5945-.00826,1.5696-.01652,1.5448-1.52008,2.0901-3.63499,1.3218-5.88207,3.8002-6.12164,7.7656-.2148,3.5111,1.61922,5.8821,4.50242,7.6087c1.77618,1.0657,3.74238,1.6936,5.62593,2.528.7353.3222,1.4375.6939,2.0488,1.2061c1.8093,1.4953,1.4788,3.982-.6691,4.9238-1.1484.5039-2.3628.6278-3.61023.4709-1.92489-.2396-3.76716-.7436-5.50204-1.644-1.01614-.5288-1.31355-.3883-1.66053.7104-.2974.9501-.56177,1.9084-.82613,2.8667-.355235,1.2888-.223055,1.5944,1.00788,2.1975c1.56965.7601,3.2467,1.1484,4.9568,1.421c1.33833.2148,1.37964.2726,1.39616,1.6605.00826.6279.00826,1.264.01652,1.8918.00827.7931.38829,1.2558,1.20616,1.2723.92531.0165,1.85881.0165,2.78411-.0083.76-.0165,1.1483-.4296,1.1483-1.1979c0-.8591.0413-1.7266.0082-2.5858-.0413-.8757.3388-1.3218,1.1814-1.5531c1.9414-.5287,3.5937-1.5696,4.8659-3.1228c3.5359-4.2959,2.1893-10.5827-2.8171-13.3503Z" transform="translate(.650813 22.729632)" fill="none" stroke="url(#eJ2HNbLct5K7-stroke)" stroke-width="1.5"/></svg>

<svg xmlns="http://www.w3.org/2000/svg" width="126" height="50" viewBox="0 60 125 1" fill="none">
<path fill-rule="evenodd" clip-rule="evenodd" d="M68.5258 67.8233C70.9164 67.8233 72.8613 69.7916 72.8613 72.2109C72.8613 74.6302 70.9164 76.5985 68.5258 76.5985C66.1352 76.5985 64.1903 74.6302 64.1903 72.2109C64.1903 69.7916 66.1352 67.8233 68.5258 67.8233ZM71.8211 72.2108C71.8211 74.0497 70.3429 75.5458 68.5258 75.5458C66.7087 75.5458 65.2305 74.0498 65.2305 72.2108C65.2305 70.372 66.7087 68.876 68.5258 68.876C70.3429 68.876 71.8211 70.372 71.8211 72.2108Z" fill="#939FAA"/>
<path fill-rule="evenodd" clip-rule="evenodd" d="M38.6157 63.2188C38.6157 62.9282 38.8486 62.6925 39.1358 62.6925H42.2116C42.4988 62.6925 42.7317 62.9282 42.7317 63.2188C42.7317 63.5095 42.4988 63.7452 42.2116 63.7452H39.1358C38.8486 63.7452 38.6157 63.5095 38.6157 63.2188ZM24.2498 62.0775C24.2498 61.7869 24.4826 61.5512 24.7699 61.5512H27.8456C28.1328 61.5512 28.3657 61.7869 28.3657 62.0775C28.3657 62.3683 28.1328 62.6039 27.8456 62.6039H24.7699C24.4826 62.6039 24.2498 62.3683 24.2498 62.0775ZM58.3638 71.7204C58.6511 71.724 58.881 71.9625 58.8775 72.2532C58.874 72.5416 58.6418 72.773 58.3575 72.773H58.351L24.668 72.3509C24.3808 72.3473 24.1508 72.1088 24.1544 71.8181C24.1579 71.5274 24.3941 71.2961 24.6809 71.2983L58.3638 71.7204Z" fill="#939FAA"/>
<path fill-rule="evenodd" clip-rule="evenodd" d="M82.6227 76.0978H75.1914C73.8596 78.4278 71.3715 80 68.5258 80C65.6801 80 63.192 78.4278 61.8602 76.0978H21.3668L21.8682 75.0451H61.3589C61.0183 74.1661 60.8291 73.2107 60.8291 72.2109C60.8291 67.916 64.2818 64.4218 68.5258 64.4218C72.7698 64.4218 76.2225 67.916 76.2225 72.2109C76.2225 73.2107 76.0334 74.1661 75.6928 75.0451H82.6227C82.9013 75.0451 83.1279 74.8158 83.1279 74.5339V69.7111H81.3479C80.4708 69.7111 79.6633 69.2658 79.1878 68.5199L74.7093 61.4938C70.4702 60.2856 64.1533 59.4345 61.9882 59.1644C61.4975 59.1031 61.0276 58.9134 60.6292 58.6155C58.5172 57.0364 47.644 49.0996 40.9768 47.9147C35.5445 46.9493 29.7302 46.9194 24.7699 47.2182L26.0015 46.0996C30.7319 45.8782 36.1037 45.9799 41.1567 46.8779C47.8803 48.0728 58.2341 55.516 61.2472 57.7688C61.5055 57.9619 61.7976 58.08 62.1154 58.1196C64.8261 58.4578 73.9612 59.6969 77.7045 61.4439C81.8725 63.3893 84.168 66.1383 84.168 69.1847V74.5339C84.168 75.3962 83.4749 76.0978 82.6227 76.0978ZM75.1823 72.2109C75.1823 75.9254 72.1962 78.9473 68.5258 78.9473C64.8554 78.9473 61.8693 75.9254 61.8693 72.2109C61.8693 68.4964 64.8554 65.4744 68.5258 65.4744C72.1962 65.4744 75.1823 68.4964 75.1823 72.2109ZM76.2634 61.99C76.6311 62.1233 76.969 62.26 77.2689 62.3999C79.3458 63.3692 82.7563 65.437 83.0977 68.6584H81.3479C80.8257 68.6584 80.345 68.3933 80.0619 67.9492L76.2634 61.99Z" fill="#939FAA"/>
<path fill-rule="evenodd" clip-rule="evenodd" d="M58.1667 60.8226C58.1584 60.8226 58.1501 60.8225 58.1418 60.822L26.0015 59.2717V58.2178L36.4198 58.7203L35.1339 50.3604C34.1477 50.2934 33.0661 50.2632 31.7008 50.2632C29.5798 50.2632 27.557 50.3351 25.6638 50.4503L26.0015 49.3756C27.7977 49.2732 29.7062 49.2105 31.7008 49.2105C33.1941 49.2105 34.3551 49.2457 35.4189 49.3245C35.4445 49.3162 35.4703 49.3081 35.4978 49.3037C35.6101 49.286 35.7191 49.3073 35.8132 49.3559C37.3114 49.4851 38.6685 49.7068 40.5784 50.0475C45.509 50.9269 54.1771 56.5441 58.4826 59.8782C58.6633 60.0182 58.7331 60.2607 58.655 60.4769C58.5798 60.6853 58.3842 60.8226 58.1667 60.8226ZM36.2005 50.4503C37.4892 50.5812 38.728 50.7864 40.3979 51.0843C44.6786 51.8477 51.9889 56.4002 56.4849 59.6882L37.4804 58.7715L36.2005 50.4503Z" fill="#939FAA"/>
<path fill-rule="evenodd" clip-rule="evenodd" d="M72.8613 72.2109C72.8613 69.7916 70.9164 67.8233 68.5258 67.8233C66.1352 67.8233 64.1903 69.7916 64.1903 72.2109C64.1903 74.6302 66.1352 76.5985 68.5258 76.5985C70.9164 76.5985 72.8613 74.6302 72.8613 72.2109ZM71.8211 72.2108C71.8211 74.0497 70.3429 75.5458 68.5258 75.5458C66.7087 75.5458 65.2305 74.0498 65.2305 72.2108C65.2305 70.372 66.7087 68.876 68.5258 68.876C70.3429 68.876 71.8211 70.372 71.8211 72.2108Z" fill="#939FAA"/>
<path d="M16.926 57.1703C15.3564 56.3029 13.6876 55.642 12.0353 54.9563C11.077 54.5597 10.16 54.0971 9.35038 53.4527C7.75595 52.1805 8.06162 50.1152 9.92868 49.2973C10.4574 49.066 11.0109 48.9916 11.5727 48.9586C13.7371 48.8429 15.7942 49.2395 17.7521 50.1812C18.727 50.6521 19.0492 50.5034 19.3796 49.4873C19.7266 48.4133 20.0158 47.3228 20.3379 46.2406C20.5527 45.5136 20.2884 45.0344 19.6027 44.7288C18.347 44.1753 17.0582 43.7787 15.7033 43.5639C13.9354 43.2913 13.9354 43.283 13.9272 41.5069C13.9189 39.0037 13.9189 39.0037 11.4075 39.0037C11.044 39.0037 10.6805 38.9954 10.317 39.0037C9.14385 39.0367 8.94558 39.2433 8.91253 40.4246C8.89601 40.9533 8.91253 41.4821 8.90427 42.0191C8.89601 43.5887 8.88775 43.5639 7.38419 44.1092C3.7492 45.431 1.50212 47.9094 1.26255 51.8748C1.04775 55.3859 2.88177 57.7569 5.76497 59.4835C7.54115 60.5492 9.50735 61.1771 11.3909 62.0115C12.1262 62.3337 12.8284 62.7054 13.4397 63.2176C15.249 64.7129 14.9185 67.1996 12.7706 68.1414C11.6222 68.6453 10.4078 68.7692 9.16037 68.6123C7.23548 68.3727 5.39321 67.8687 3.65833 66.9683C2.64219 66.4395 2.34478 66.58 1.9978 67.6787C1.7004 68.6288 1.43603 69.5871 1.17167 70.5454C0.816435 71.8342 0.948615 72.1398 2.17955 72.7429C3.7492 73.503 5.42625 73.8913 7.13635 74.1639C8.47468 74.3787 8.51599 74.4365 8.53251 75.8244C8.54077 76.4523 8.54077 77.0884 8.54903 77.7162C8.5573 78.5093 8.93732 78.972 9.75519 78.9885C10.6805 79.005 11.614 79.005 12.5393 78.9802C13.2993 78.9637 13.6876 78.5506 13.6876 77.7823C13.6876 76.9232 13.7289 76.0557 13.6958 75.1965C13.6545 74.3208 14.0346 73.8747 14.8772 73.6434C16.8186 73.1147 18.4709 72.0738 19.7431 70.5206C23.279 66.2247 21.9324 59.9379 16.926 57.1703Z" stroke="url(#paint0_linear_1505_61000)" stroke-width="1.5"/>
<defs>
<linearGradient id="paint0_linear_1505_61000" x1="1" y1="79" x2="23.8246" y2="77.7644" gradientUnits="userSpaceOnUse">
<stop stop-color="#E41B1B"/>
<stop offset="1" stop-color="#BD0000"/>
</linearGradient>
</defs>
</svg>
